X:276
T:How Shall We Answer Terror's Cry?
%%stretchlast false
M:4/4
L:1/4
K:Bb clef=C1
"^I"[B,DB] [B,FBd]3/2 [B,FBd]/ [B,Bdf] | [B,Bdf]/ "^Imaj7"[B,Adf]/ "^IV"[EGeg]/ "^V"[FAeg]/ "^IV¹"[GBeg]/ "^viiø7"[Aceg]/ "^I"[Bdf] | "^V¹"[Acf] "^vi7"[GBfb] "^v"[CGfc']/ "^V/V"[CG=ec']/ "^V"[FAfa] | "^V¹"[A,cf]/ "^I"[B,Bdf]/ "^v"[CGcf] "^V/V"[CGc=e] "^V"[FAcf] | [FAc] "^V7¹"[A,Fce]3/2 [A,Fce]/ "^I"[B,FBd] | [B,FBd] "^VI7¹"[=B,Gdf]3/2 "^vi7¹"[B,Gdf]/ "^II"[CGc=e] | "^V/iii¹"[_DA=ea] "^iii"[DAdf] "^♯iv"[=EGd=e]/ "^♭iii°¹"[=EG_d=e]/ "^iii¹"[FAd] | "^vi"[GBdg]/ "^♭v°¹"[GB=eg]/ "^iii²"[Adf] "^V/iii"[A,A_d=e] "^iii"[DFd] | [DFAd] "^I7"[B,F_Ad]3/2 "^Imaj7"[B,FAd]/ "^IV"[EGe] | [EGBe] "^II7"[CGB=e]3/2 "^ii7"[CGBe]/ "^V"[FAf] | "^V7¹"[A,cef] "^I"[B,Bdf] "^II7¹"[=E,Bcg] "^I²"[F,Bdf] | [F,FBd] "^V7"[F,EAc]3/2 "^I"[B,DB]/ [B,DB] |]
